styles/2/Numix/128/places/default-folder-wine.svg

<?xml version="1.0" encoding="UTF-8" standalone="no"?>
<svg
   xmlns:dc="http://purl.org/dc/elements/1.1/"
   xmlns:cc="http://creativecommons.org/ns#"
   xmlns:rdf="http://www.w3.org/1999/02/22-rdf-syntax-ns#"
   xmlns:svg="http://www.w3.org/2000/svg"
   xmlns="http://www.w3.org/2000/svg"
   xmlns:sodipodi="http://sodipodi.sourceforge.net/DTD/sodipodi-0.dtd"
   xmlns:inkscape="http://www.inkscape.org/namespaces/inkscape"
   width="128px"
   height="128px"
   viewBox="0 0 128 128"
   version="1.1"
   id="svg27175"
   inkscape:version="0.91 r"
   sodipodi:docname="default-folder-wine.svg">
  <metadata
     id="metadata27192">
    <rdf:RDF>
      <cc:Work
         rdf:about="">
        <dc:format>image/svg+xml</dc:format>
        <dc:type
           rdf:resource="http://purl.org/dc/dcmitype/StillImage" />
      </cc:Work>
    </rdf:RDF>
  </metadata>
  <defs
     id="defs27190" />
  <sodipodi:namedview
     pagecolor="#ffffff"
     bordercolor="#666666"
     borderopacity="1"
     objecttolerance="10"
     gridtolerance="10"
     guidetolerance="10"
     inkscape:pageopacity="0"
     inkscape:pageshadow="2"
     inkscape:window-width="640"
     inkscape:window-height="480"
     id="namedview27188" />
  <g
     id="surface1">
    <path
       style=" stroke:none;fill-rule:nonzero;fill:rgb(91.372549%,69.019608%,50.196078%);fill-opacity:1;"
       d="M 18 16 C 15.070312 16 12 19.023438 12 22 L 12 24 L 6 24 C 3.058594 24 0 26.992188 0 30 L 0 106 C 0 110 2 112 6 112 L 122 112 C 125.136719 112 128 109.285156 128 106 L 128 40 C 128 36.988281 125.089844 34 122 34 L 116 34 L 116 22 C 116 19.078125 113.09375 16 110 16 Z M 18 16 "
       id="path27178" />
    <path
       style=" stroke:none;fill-rule:nonzero;fill:rgb(0%,0%,0%);fill-opacity:0.321569;"
       d="M 18 16 C 15.070312 16 12 19.023438 12 22 L 12 24 L 6 24 C 3.058594 24 0 26.992188 0 30 L 0 106 C 0 110 2 112 6 112 L 122 112 C 125.136719 112 128 109.285156 128 106 L 128 40 C 128 36.988281 125.089844 34 122 34 L 116 34 L 116 22 C 116 19.078125 113.09375 16 110 16 Z M 6 28 L 74 28 C 75.179688 28 76 29.03125 76 30 L 76 38 L 122 38 C 123.011719 38 124 39.015625 124 40 L 124 106 C 124 107.042969 123.042969 108 122 108 L 6 108 C 5.070312 108 4 107.207031 4 106 L 4 30 C 4 29.015625 5.03125 28 6 28 Z M 6 28 "
       id="path27180" />
    <path
       style=" stroke:none;fill-rule:nonzero;fill:rgb(0%,0%,0%);fill-opacity:0.321569;"
       d="M 82.078125 50.003906 C 80.007812 50.035156 77.96875 51.308594 77.640625 53.6875 C 77.117188 57.488281 81.035156 56.0625 84.167969 56.0625 C 87.300781 56.0625 88.34375 62.238281 87.5625 65.566406 C 86.777344 68.894531 78.453125 76.75 59.628906 68.894531 C 44.128906 62.425781 36.390625 71.039062 36 71.210938 C 37.464844 84.0625 49.425781 98 63.933594 98 C 79.433594 98 92 82.644531 92 68.535156 C 92 66.917969 91.792969 65.320312 91.476562 63.785156 C 91.191406 63.007812 90.90625 62.234375 90.695312 61.527344 C 90.316406 60.261719 89.886719 59.195312 89.519531 58.199219 C 89.503906 58.167969 89.535156 58.113281 89.519531 58.082031 C 88.035156 55.082031 85.957031 52.371094 83.382812 50.121094 C 83.371094 50.09375 83.332031 50.148438 83.320312 50.121094 C 82.917969 50.027344 82.492188 49.996094 82.078125 50 Z M 82.078125 50.003906 "
       id="path27182" />
    <path
       style=" stroke:none;fill-rule:nonzero;fill:rgb(0%,0%,0%);fill-opacity:0.321569;"
       d="M 76 62 C 76 64.210938 74.210938 66 72 66 C 69.789062 66 68 64.210938 68 62 C 68 59.792969 69.789062 58 72 58 C 74.210938 58 76 59.792969 76 62 Z M 76 62 "
       id="path27184" />
    <path
       style=" stroke:none;fill-rule:nonzero;fill:rgb(0%,0%,0%);fill-opacity:0.321569;"
       d="M 64 56 C 64 57.105469 63.105469 58 62 58 C 60.894531 58 60 57.105469 60 56 C 60 54.894531 60.894531 54 62 54 C 63.105469 54 64 54.894531 64 56 Z M 64 56 "
       id="path27186" />
  </g>
</svg>

<svg xmlns="http://www.w3.org/2000/svg" viewBox="0 0 128 128">
 <g>
  <path d="m 18 16 c -2.93 0 -6 3.02 -6 6 l 0 2 l -6 0 c -2.941 0 -6 2.992 -6 6 l 0 76 c 0 4 2 6 6 6 l 116 0 c 3.137 0 6 -2.715 6 -6 l 0 -66 c 0 -3.01 -2.91 -6 -6 -6 l -6 0 l 0 -12 c 0 -2.922 -2.906 -6 -6 -6 m -92 0" style="fill:#e8b07f;fill-opacity:1;stroke:none;fill-rule:nonzero"/>
  <path d="m 18 16 c -2.93 0 -6 3.02 -6 6 l 0 2 l -6 0 c -2.941 0 -6 2.992 -6 6 l 0 76 c 0 4 2 6 6 6 l 116 0 c 3.137 0 6 -2.715 6 -6 l 0 -66 c 0 -3.01 -2.91 -6 -6 -6 l -6 0 l 0 -12 c 0 -2.922 -2.906 -6 -6 -6 m -104 12 l 68 0 c 1.18 0 2 1.031 2 2 l 0 8 l 46 0 c 1.012 0 2 1.016 2 2 l 0 66 c 0 1.043 -0.957 2 -2 2 l -116 0 c -0.93 0 -2 -0.793 -2 -2 l 0 -76 c 0 -0.984 1.031 -2 2 -2 m 0 0" style="fill:#000;fill-opacity:0.322;stroke:none;fill-rule:nonzero"/>
  <path d="m 82.08 50 c -2.07 0.031 -4.109 1.305 -4.438 3.684 c -0.523 3.801 3.395 2.375 6.527 2.375 c 3.133 0 4.176 6.176 3.395 9.504 c -0.785 3.328 -9.109 11.184 -27.934 3.328 c -15.5 -6.469 -23.24 2.145 -23.629 2.316 c 1.465 12.852 13.426 26.789 27.934 26.789 c 15.5 0 28.07 -15.355 28.07 -29.465 c 0 -1.617 -0.207 -3.215 -0.523 -4.75 c -0.285 -0.777 -0.57 -1.551 -0.781 -2.258 c -0.379 -1.266 -0.809 -2.332 -1.176 -3.328 c -0.016 -0.031 0.016 -0.086 0 -0.117 c -1.484 -3 -3.563 -5.711 -6.137 -7.961 c -0.012 -0.027 -0.051 0.027 -0.063 0 c -0.402 -0.094 -0.828 -0.125 -1.242 -0.121 m 0 0.004" style="fill:#000;fill-opacity:0.322;stroke:none;fill-rule:nonzero"/>
  <path d="m 76 62 c 0 2.211 -1.789 4 -4 4 c -2.211 0 -4 -1.789 -4 -4 c 0 -2.207 1.789 -4 4 -4 c 2.211 0 4 1.793 4 4 m 0 0" style="fill:#000;fill-opacity:0.322;stroke:none;fill-rule:nonzero"/>
  <path d="m 64 56 c 0 1.105 -0.895 2 -2 2 c -1.105 0 -2 -0.895 -2 -2 c 0 -1.105 0.895 -2 2 -2 c 1.105 0 2 0.895 2 2 m 0 0" style="fill:#000;fill-opacity:0.322;stroke:none;fill-rule:nonzero"/>
 </g>
</svg>
